X:927
Q:1/4 = 84
T: Úgy szeretlek, mint a mézes kalácsot
M:4/4
L:1/8
K:G
G>Gcc BGAA | B G3 G2 z |
ddgg fdee | f d3 d2 z | 
ddgg fd e2 | ccee dB d z |
G>Gcc B<GAA | B G3 G2 z |

